X: 1114
T: The Duke of Bucclugh's Tune.
%R: march
B: Henry Playford "Apollo's Banquet", London 1687 (5th Edition)
F: https://archive.org/details/apollosbanquetco01rugg
Z: 2017 John Chambers <jc:trillian.mit.edu>
M: C|
L: 1/8
K: Dmix
% - - - - - - - - - -
B |\
(GE3) (GE3) | A3G A2B2 | (GE3) G3A | B4 d2 :: B>A | G2G2 e2G2 | B2 A4 B>A | G2G2 e3d | B4 d2B>A |
G2G2 e2(dc) | B3A B2d2 | efg2 e3d | B4 d2 :: G2(EF) G3E | A3G A2B2 | GEGE DCA,G, | B4 d2 :: A>B |
G2G2 e2d2 | B2 A4 B>A | G2G2 (gf)(ed) | B4 d2B>A | G2G2 e2G2 | B2 A4 (gf) | (ef) a4 e3d | B4 d2 |]
% - - - - - - - - - -

%%sep 1 1 500
%%sep 1 1 500

